packages/mercury/src/icons/svg-source/bpm/message-3.svg

<svg xmlns="http://www.w3.org/2000/svg" width="32" height="32" fill="none" viewBox="0 0 32 32">
  <g clip-path="url(#a)">
    <path fill="#C0CCD9" d="M8.67 10.42a.54.54 0 0 0-.2-.1 1 1 0 0 1 .53-.17h14a1 1 0 0 1 .63.24h-.06l-7 6a.582.582 0 0 1-.85 0l-7.05-5.97Zm7.45 7.21a1.58 1.58 0 0 1-1.12-.47l-7-6v9a1 1 0 0 0 1 1h14a1 1 0 0 0 1-1v-8.79l-6.79 5.82a1.56 1.56 0 0 1-1.09.44Zm15.38-1.47A15.5 15.5 0 1 0 16 31.61a15.51 15.51 0 0 0 15.5-15.5v.05Zm-1 0A14.5 14.5 0 1 1 16 1.61a14.52 14.52 0 0 1 14.5 14.5v.05Zm-2 0A12.5 12.5 0 1 0 16 28.61a12.51 12.51 0 0 0 12.5-12.5v.05Zm-1 0A11.5 11.5 0 1 1 16 4.61a11.51 11.51 0 0 1 11.5 11.5v.05Z"/>
  </g>
</svg>

<svg xmlns="http://www.w3.org/2000/svg" viewBox="0 0 32 32"><defs><style>.af876f1c-bea9-4405-a5c6-77b23672ffba{fill:#81888e;}</style></defs><g id="f7a4fb31-3407-47a1-9de1-1f0b9d2745ae" data-name="message-3"><path id="b1f708af-f7bc-4dc0-80b8-bb850d1c6219" data-name="icons09" class="af876f1c-bea9-4405-a5c6-77b23672ffba" d="M8.67,10.42a.54.54,0,0,0-.2-.1A1,1,0,0,1,9,10.15H23a1,1,0,0,1,.63.24l-.06,0-7,6a.58.58,0,0,1-.85,0Zm7.45,7.21A1.58,1.58,0,0,1,15,17.16l-7-6,0,0v9a1,1,0,0,0,1,1H23a1,1,0,0,0,1-1V11.37l-6.79,5.82A1.56,1.56,0,0,1,16.12,17.63ZM8,11.16H8m23.5,5A15.5,15.5,0,1,0,16,31.61,15.51,15.51,0,0,0,31.5,16.11Zm-1,0A14.5,14.5,0,1,1,16,1.61,14.52,14.52,0,0,1,30.5,16.11Zm-2,0A12.5,12.5,0,1,0,16,28.61,12.51,12.51,0,0,0,28.5,16.11Zm-1,0A11.5,11.5,0,1,1,16,4.61,11.51,11.51,0,0,1,27.5,16.11Z"/></g></svg>
